X:1
T:The Soul Cheering Promise
T:The Soul Cheering Promise
T:George N. Rockwell
T:Frances Jane (Fanny) Crosby, 1896
T:Public Domain Courtesy of the Cyber Hymnal™
T:Public Domain Courtesy of the Cyber Hymnal™
C:George N. Rockwell
Z:Public Domain
Z:Courtesy of the Cyber Hymnal™
%%score ( 1 2 ) ( 3 4 )
L:1/8
Q:1/4=100
M:6/8
K:F
V:1 treble 
V:2 treble 
V:3 bass 
V:4 bass 
V:1
 [FA] | [FA][Fd][Fc] [FB][FA][EG] | [EG]3 F2 A | [_EA][DG]D [C=E][CF][CG] | [CF]3- [CF]2 [FA] | %5
w: 1.~We|know not the tri- als be-|fore us, But|Je- sus takes thought for them|all, * And|
w: 2.~We|know not the tri- als be-|fore us, But|why; should we trem- ble or|fear? * The|
w: 3.~We|know not the tri- als be-|fore us, The|sor- rows and cares we shall|meet, * But|
 [FA][Fd][Fc] [FB][FA][EG] | [EG]3 [DF]2 [FA] | [EG][EG][DF] [DF][EG][FA] | [EG]3- [EG]2 [EG] | %9
w: trust- ing the aid of His|coun- sel, We|nev- er, no, nev- er can|fall; * We|
w: arm of the Lord will pro-|tect us, The|ark of His mer- cy is|near; * We|
w: O there’s a re- fuge in|Je- sus, Though|surg- es may break at our|feet; * How|
 [EG][EA][EB] [GB][FA][^Gd] | [^Gd]3 [Ac]2 [Ac] | [Ac][GB][GB] [GB][FA]F | [EG]3- [EG]2 [Ec] | %13
w: know not the tria- ls be-|fore us, Or|what on the mor- row may|be, * But|
w: know not the tri- als be-|fore us, Or|what our tempt- a- tions may|be, * But|
w: bless- èd that re- fuge for-|ev- er Where|safe from the storm we shall|be, * The|
 [Ff][Ge][Fd] [EG][EA][EB] | [_Ec]3 [DB]2 [=Ed] | [Fc][FA]F [EG][EA]>[EG] | F3- F2 || %17
w: sweet is the soul- cheer- ing|prom- ise, “My|grace is suf- fi- cient for|thee.” *|
w: strong- er than death is the|prom- ise, “My|grace is suf- fi- cient for|thee.” *|
w: pass- word to life is the|prom- ise, “My|grace is suf- fi- cient for|thee.” *|
"^Refrain" [FA] | [FA][Fd][Fc] [FB][FA][EG] | [EG]3 F2 A | [_EA][DG]D [C=E][CF][EG] | %21
w: ||||
w: Then|cleave to the Sav- ior, cleave|to Him, What-|ev- er the con- flict may|
w: ||||
 [FA]3- [FA]2 [Ec] | [Ff][Ge][Fd] [EG][EA][EB] | [_Ec]3 [DB]2 [=Ed] | [Fc][FA]F [EG][EA]>[EG] | %25
w: ||||
w: be, * Re-|mem- ber the soul- cheer- ing|prom- ise, “My|grace is suf- fi- cient for|
w: ||||
 F3- F2 |] %26
w: |
w: thee.” *|
w: |
V:2
 x | x6 | x3 F2 (F/E/) | x2 D x3 | x6 | x6 | x6 | x6 | x6 | x6 | x6 | x5 F | x6 | x6 | x6 | %15
 x2 F x3 | F3- F2 || x | x6 | x3 F2 (F/E/) | x2 D x3 | x6 | x6 | x6 | x2 F x3 | F3- F2 |] %26
V:3
 [F,C] | [F,B,][F,C][F,A,] [F,D][F,C][C,B,] | [C,B,]3 [F,A,]2 [F,C] | %3
 [^F,C][G,B,][B,,B,] [C,G,][C,A,][C,B,] | [F,A,]3- [F,A,]2 [F,C] | %5
 [F,C][G,B,][G,B,] [F,D][F,C][C,B,] | [C,B,]3 [D,A,]2 [E,C] | %7
 [G,,=B,][G,,B,][G,,B,] [G,,B,][G,,B,][G,,B,] | [C,C]3- [C,C]2 C | %9
 [B,C][A,C][G,C] [F,C][F,C][F,=B,] | [F,=B,]3 [F,C]2 [^F,_E] | [G,D][G,D][E,C] [F,C][F,C][D,=B,] | %12
 [C,C]3- [C,C]2 C | [A,C][A,^C][B,D] [B,=C][A,C][G,C] | [^F,A,]3 [G,B,]2 (G,/^G,/) | %15
 [C,A,][C,C][C,A,] [C,B,][C,C]>[C,B,] | [F,A,]3- [F,A,]2 || [F,C] | %18
 [F,C][F,B,][F,A,] [F,D][F,C][C,B,] | [C,B,]3 [F,A,]2 [F,C] | %20
 [^F,C][G,B,][B,,B,] [C,G,][C,A,][C,B,] | [F,C]3- [F,C]2 C | [A,C][A,^C][B,D] [B,=C][A,C][G,C] | %23
 [^F,A,]3 [G,B,]2 (G,/^G,/) | [C,A,][C,C][C,A,] [C,B,][C,C]>[C,B,] | [F,A,]3- [F,A,]2 |] %26
V:4
 x | x6 | x6 | x6 | x6 | x6 | x6 | x6 | x5 C | x6 | x6 | x6 | x5 (C/B,/) | x6 | x5 =B,, | x6 | %16
 x5 || x | x6 | x6 | x6 | x5 (C/B,/) | x6 | x5 =B,, | x6 | x5 |] %26

